wp-content/uploads/stamp02.svg

<?xml version="1.0" encoding="UTF-8"?> <svg xmlns="http://www.w3.org/2000/svg" width="246" height="23" viewBox="0 0 246 23" fill="none"><rect width="246" height="23" rx="5" fill="#032538"></rect><path d="M11.552 14.92V13.576L17.76 11.496V11.304L11.552 9.224V7.88L18.24 10.184V12.616L11.552 14.92ZM37.1298 9.032C37.1298 8.66933 37.0551 8.34933 36.9058 8.072C36.7671 7.79467 36.5751 7.56533 36.3298 7.384C36.0844 7.20267 35.8018 7.064 35.4818 6.968C35.1618 6.872 34.8258 6.824 34.4738 6.824C34.1644 6.824 33.8711 6.86667 33.5938 6.952C33.3164 7.02667 33.0658 7.13867 32.8418 7.288C32.6284 7.43733 32.4578 7.624 32.3298 7.848C32.2018 8.06133 32.1378 8.312 32.1378 8.6V8.696C32.1378 9.00533 32.2018 9.272 32.3298 9.496C32.4578 9.70933 32.6444 9.896 32.8898 10.056C33.1458 10.2053 33.4604 10.3333 33.8338 10.44C34.2071 10.536 34.6444 10.6213 35.1458 10.696C36.3191 10.8773 37.1831 11.224 37.7378 11.736C38.2924 12.2373 38.5698 12.9147 38.5698 13.768V13.96C38.5698 14.44 38.4844 14.8827 38.3138 15.288C38.1538 15.6827 37.9084 16.024 37.5778 16.312C37.2578 16.6 36.8578 16.824 36.3778 16.984C35.8978 17.144 35.3431 17.224 34.7138 17.224C33.9991 17.224 33.3644 17.1227 32.8098 16.92C32.2658 16.7067 31.8071 16.4187 31.4338 16.056C31.0711 15.6827 30.7938 15.2507 30.6018 14.76C30.4098 14.2587 30.3138 13.7147 30.3138 13.128V12.648H31.6578V13.032C31.6578 14.0133 31.9244 14.7493 32.4578 15.24C33.0018 15.7307 33.7538 15.976 34.7138 15.976C35.5458 15.976 36.1698 15.7947 36.5858 15.432C37.0124 15.0587 37.2258 14.568 37.2258 13.96V13.864C37.2258 13.2773 37.0071 12.8293 36.5698 12.52C36.1431 12.2107 35.4444 11.9867 34.4738 11.848C33.9084 11.7733 33.3964 11.6613 32.9378 11.512C32.4898 11.352 32.1058 11.1493 31.7858 10.904C31.4658 10.648 31.2204 10.344 31.0498 9.992C30.8791 9.64 30.7938 9.224 30.7938 8.744V8.552C30.7938 8.11467 30.8844 7.71467 31.0658 7.352C31.2471 6.98933 31.4978 6.67467 31.8178 6.408C32.1484 6.14133 32.5378 5.93867 32.9858 5.8C33.4444 5.65067 33.9458 5.576 34.4898 5.576C35.1191 5.576 35.6791 5.66667 36.1698 5.848C36.6711 6.02933 37.0924 6.27467 37.4338 6.584C37.7751 6.88267 38.0311 7.24 38.2018 7.656C38.3831 8.06133 38.4738 8.488 38.4738 8.936V9.608H37.1298V9.032ZM40.3506 5.8H48.2226V7.048H44.9586V17H43.6146V7.048H40.3506V5.8ZM57.5875 17H56.2435V13.256C56.2435 12.9787 56.1795 12.7653 56.0515 12.616C55.9235 12.4667 55.6995 12.392 55.3795 12.392H51.8915V17H50.5475V5.8H54.5475C55.1235 5.8 55.6248 5.88533 56.0515 6.056C56.4782 6.216 56.8302 6.43467 57.1075 6.712C57.3955 6.98933 57.6088 7.31467 57.7475 7.688C57.8968 8.05067 57.9715 8.43467 57.9715 8.84V9.32C57.9715 9.736 57.8542 10.152 57.6195 10.568C57.3955 10.984 57.0435 11.304 56.5635 11.528V11.72C56.8835 11.7733 57.1342 11.9013 57.3155 12.104C57.4968 12.3067 57.5875 12.5947 57.5875 12.968V17ZM51.8915 11.144H54.3875C55.1448 11.144 55.7048 10.984 56.0675 10.664C56.4408 10.3333 56.6275 9.85333 56.6275 9.224V8.936C56.6275 8.37067 56.4408 7.91733 56.0675 7.576C55.7048 7.224 55.1448 7.048 54.3875 7.048H51.8915V11.144ZM66.2804 14.216H61.4804L60.6644 17H59.2244L62.6164 5.8H65.1444L68.5364 17H67.0964L66.2804 14.216ZM63.7844 6.376L61.8484 12.968H65.9124L63.9764 6.376H63.7844ZM69.7413 5.8H77.6133V7.048H74.3493V17H73.0052V7.048H69.7413V5.8ZM80.0821 5.8H86.8661V7.048H81.4261V10.76H86.7701V12.008H81.4261V15.752H86.9621V17H80.0821V5.8ZM92.199 11.624H97.191V17H95.943V15.656H95.751C95.5697 16.1253 95.2497 16.504 94.791 16.792C94.3323 17.08 93.799 17.224 93.191 17.224C91.9857 17.224 91.0363 16.8347 90.343 16.056C89.6603 15.2773 89.319 14.1413 89.319 12.648V10.152C89.319 8.70133 89.6657 7.576 90.359 6.776C91.0523 5.976 92.0177 5.576 93.255 5.576C93.895 5.576 94.4603 5.68267 94.951 5.896C95.4417 6.09867 95.8523 6.38667 96.183 6.76C96.5137 7.12267 96.7643 7.55467 96.935 8.056C97.1057 8.54667 97.191 9.07467 97.191 9.64V9.832H95.847V9.64C95.847 9.27733 95.7937 8.92533 95.687 8.584C95.591 8.24267 95.4363 7.944 95.223 7.688C95.0203 7.42133 94.7537 7.21333 94.423 7.064C94.103 6.904 93.7137 6.824 93.255 6.824C92.391 6.824 91.7403 7.13867 91.303 7.768C90.8763 8.39733 90.663 9.224 90.663 10.248V12.552C90.663 13.6507 90.8763 14.4987 91.303 15.096C91.7403 15.6827 92.4017 15.976 93.287 15.976C94.087 15.976 94.711 15.72 95.159 15.208C95.6177 14.696 95.847 13.9813 95.847 13.064V12.872H92.199V11.624ZM99.5159 5.8H106.62V7.048H103.74V15.752H106.62V17H99.5159V15.752H102.396V7.048H99.5159V5.8ZM112.929 15.976C113.387 15.976 113.777 15.9013 114.097 15.752C114.427 15.592 114.694 15.384 114.897 15.128C115.11 14.8613 115.265 14.5627 115.361 14.232C115.467 13.8907 115.521 13.5333 115.521 13.16V12.968H116.865V13.16C116.865 13.7253 116.779 14.2587 116.609 14.76C116.438 15.2507 116.187 15.6827 115.857 16.056C115.526 16.4187 115.115 16.7067 114.625 16.92C114.134 17.1227 113.569 17.224 112.929 17.224C111.691 17.224 110.726 16.8347 110.033 16.056C109.339 15.2773 108.993 14.1413 108.993 12.648V10.152C108.993 8.70133 109.339 7.576 110.033 6.776C110.726 5.976 111.691 5.576 112.929 5.576C113.569 5.576 114.134 5.68267 114.625 5.896C115.115 6.09867 115.526 6.38667 115.857 6.76C116.187 7.12267 116.438 7.55467 116.609 8.056C116.779 8.54667 116.865 9.07467 116.865 9.64V9.832H115.521V9.64C115.51 9.27733 115.451 8.92533 115.345 8.584C115.249 8.24267 115.094 7.944 114.881 7.688C114.678 7.42133 114.417 7.21333 114.097 7.064C113.777 6.904 113.387 6.824 112.929 6.824C112.065 6.824 111.414 7.13867 110.977 7.768C110.55 8.39733 110.337 9.224 110.337 10.248V12.552C110.337 13.6507 110.55 14.4987 110.977 15.096C111.414 15.6827 112.065 15.976 112.929 15.976ZM125.062 14.216H120.262L119.446 17H118.006L121.398 5.8H123.926L127.318 17H125.878L125.062 14.216ZM122.566 6.376L120.63 12.968H124.694L122.758 6.376H122.566ZM128.955 5.8H130.299V15.752H136.155V17H128.955V5.8ZM138.751 5.8H140.095V15.752H145.951V17H138.751V5.8ZM151.38 13.064H151.092L147.588 5.8H149.092L151.956 11.912H152.148L155.012 5.8H156.516L153.012 13.064H152.724V17H151.38V13.064ZM174.046 14.216H169.246L168.43 17H166.99L170.382 5.8H172.91L176.302 17H174.862L174.046 14.216ZM171.55 6.376L169.614 12.968H173.678L171.742 6.376H171.55ZM177.939 5.8H179.283V15.752H185.139V17H177.939V5.8ZM187.688 5.8H194.792V7.048H191.912V15.752H194.792V17H187.688V15.752H190.568V7.048H187.688V5.8ZM199.965 11.624H204.957V17H203.709V15.656H203.517C203.335 16.1253 203.015 16.504 202.557 16.792C202.098 17.08 201.565 17.224 200.957 17.224C199.751 17.224 198.802 16.8347 198.109 16.056C197.426 15.2773 197.085 14.1413 197.085 12.648V10.152C197.085 8.70133 197.431 7.576 198.125 6.776C198.818 5.976 199.783 5.576 201.021 5.576C201.661 5.576 202.226 5.68267 202.717 5.896C203.207 6.09867 203.618 6.38667 203.949 6.76C204.279 7.12267 204.53 7.55467 204.701 8.056C204.871 8.54667 204.957 9.07467 204.957 9.64V9.832H203.613V9.64C203.613 9.27733 203.559 8.92533 203.453 8.584C203.357 8.24267 203.202 7.944 202.989 7.688C202.786 7.42133 202.519 7.21333 202.189 7.064C201.869 6.904 201.479 6.824 201.021 6.824C200.157 6.824 199.506 7.13867 199.069 7.768C198.642 8.39733 198.429 9.224 198.429 10.248V12.552C198.429 13.6507 198.642 14.4987 199.069 15.096C199.506 15.6827 200.167 15.976 201.053 15.976C201.853 15.976 202.477 15.72 202.925 15.208C203.383 14.696 203.613 13.9813 203.613 13.064V12.872H199.965V11.624ZM213.026 16.424H213.218V5.8H214.562V17H211.874L208.642 6.376H208.45V17H207.106V5.8H209.794L213.026 16.424ZM217.238 5.8H224.022V7.048H218.582V10.76H223.926V12.008H218.582V15.752H224.118V17H217.238V5.8ZM226.699 5.8H230.379C231.766 5.8 232.779 6.13067 233.419 6.792C234.059 7.45333 234.379 8.50933 234.379 9.96V12.84C234.379 14.2907 234.059 15.3467 233.419 16.008C232.779 16.6693 231.766 17 230.379 17H226.699V15.736H227.659V7.048H226.699V5.8ZM230.187 15.752C230.678 15.752 231.099 15.704 231.451 15.608C231.814 15.512 232.113 15.352 232.347 15.128C232.582 14.8933 232.753 14.584 232.859 14.2C232.977 13.816 233.035 13.3307 233.035 12.744V10.056C233.035 9.46933 232.977 8.984 232.859 8.6C232.753 8.216 232.582 7.912 232.347 7.688C232.113 7.45333 231.814 7.288 231.451 7.192C231.099 7.096 230.678 7.048 230.187 7.048H229.003V15.752H230.187Z" fill="#F5B380"></path></svg>

<svg xmlns="http://www.w3.org/2000/svg" width="246" height="23" fill="none"><rect width="246" height="23" fill="#032538" rx="5"/><path fill="#F5B380" d="M11.552 14.92v-1.344l6.208-2.08v-.192l-6.208-2.08V7.88l6.688 2.304v2.432l-6.688 2.304ZM37.13 9.032c0-.363-.075-.683-.224-.96a1.899 1.899 0 0 0-.576-.688 2.736 2.736 0 0 0-.848-.416 3.49 3.49 0 0 0-1.008-.144c-.31 0-.603.043-.88.128a2.53 2.53 0 0 0-.752.336c-.214.15-.384.336-.512.56a1.434 1.434 0 0 0-.192.752v.096c0 .31.064.576.192.8.128.213.314.4.56.56.256.15.57.277.944.384.373.096.81.181 1.312.256 1.173.181 2.037.528 2.592 1.04.554.501.832 1.179.832 2.032v.192c0 .48-.086.923-.256 1.328-.16.395-.406.736-.736 1.024a3.35 3.35 0 0 1-1.2.672c-.48.16-1.035.24-1.664.24-.715 0-1.35-.101-1.904-.304a4.087 4.087 0 0 1-1.376-.864 3.857 3.857 0 0 1-.832-1.296 4.525 4.525 0 0 1-.288-1.632v-.48h1.344v.384c0 .981.266 1.717.8 2.208.544.49 1.296.736 2.256.736.832 0 1.456-.181 1.872-.544.426-.373.64-.864.64-1.472v-.096c0-.587-.219-1.035-.656-1.344-.427-.31-1.126-.533-2.096-.672a8.614 8.614 0 0 1-1.536-.336 4.202 4.202 0 0 1-1.152-.608 2.626 2.626 0 0 1-.736-.912c-.17-.352-.256-.768-.256-1.248v-.192c0-.437.09-.837.272-1.2.181-.363.432-.677.752-.944.33-.267.72-.47 1.168-.608.458-.15.96-.224 1.504-.224.63 0 1.19.09 1.68.272.501.181.922.427 1.264.736.341.299.597.656.768 1.072a3.1 3.1 0 0 1 .272 1.28v.672H37.13v-.576ZM40.35 5.8h7.873v1.248h-3.264V17h-1.344V7.048H40.35V5.8ZM57.588 17h-1.344v-3.744c0-.277-.064-.49-.192-.64-.128-.15-.352-.224-.672-.224h-3.487V17h-1.345V5.8h4c.577 0 1.078.085 1.505.256.426.16.778.379 1.056.656.288.277.5.603.64.976.149.363.224.747.224 1.152v.48c0 .416-.118.832-.352 1.248-.224.416-.576.736-1.056.96v.192c.32.053.57.181.752.384.18.203.271.49.271.864V17Zm-5.696-5.856h2.497c.757 0 1.317-.16 1.68-.48.373-.33.56-.81.56-1.44v-.288c0-.565-.187-1.019-.56-1.36-.363-.352-.923-.528-1.68-.528h-2.496v4.096Zm14.39 3.072h-4.8L60.663 17h-1.44l3.392-11.2h2.528L68.536 17h-1.44l-.816-2.784Zm-2.497-7.84-1.936 6.592h4.064l-1.936-6.592h-.192Zm5.957-.576h7.872v1.248H74.35V17h-1.344V7.048h-3.264V5.8Zm10.341 0h6.784v1.248h-5.44v3.712h5.344v1.248h-5.344v3.744h5.536V17h-6.88V5.8ZM92.2 11.624h4.992V17h-1.248v-1.344h-.192c-.181.47-.501.848-.96 1.136-.459.288-.992.432-1.6.432-1.205 0-2.155-.39-2.848-1.168-.683-.779-1.024-1.915-1.024-3.408v-2.496c0-1.45.347-2.576 1.04-3.376.693-.8 1.659-1.2 2.896-1.2.64 0 1.205.107 1.696.32.49.203.901.49 1.232.864.33.363.581.795.752 1.296.17.49.256 1.019.256 1.584v.192h-1.344V9.64c0-.363-.053-.715-.16-1.056a2.393 2.393 0 0 0-.464-.896 2.035 2.035 0 0 0-.8-.624c-.32-.16-.71-.24-1.168-.24-.864 0-1.515.315-1.952.944-.427.63-.64 1.456-.64 2.48v2.304c0 1.099.213 1.947.64 2.544.437.587 1.099.88 1.984.88.8 0 1.424-.256 1.872-.768.459-.512.688-1.227.688-2.144v-.192h-3.648v-1.248ZM99.516 5.8h7.104v1.248h-2.88v8.704h2.88V17h-7.104v-1.248h2.88V7.048h-2.88V5.8Zm13.413 10.176c.458 0 .848-.075 1.168-.224.33-.16.597-.368.8-.624a2.57 2.57 0 0 0 .464-.896c.106-.341.16-.699.16-1.072v-.192h1.344v.192a4.95 4.95 0 0 1-.256 1.6c-.171.49-.422.923-.752 1.296-.331.363-.742.65-1.232.864-.491.203-1.056.304-1.696.304-1.238 0-2.203-.39-2.896-1.168-.694-.779-1.04-1.915-1.04-3.408v-2.496c0-1.45.346-2.576 1.04-3.376.693-.8 1.658-1.2 2.896-1.2.64 0 1.205.107 1.696.32.49.203.901.49 1.232.864.33.363.581.795.752 1.296.17.49.256 1.019.256 1.584v.192h-1.344V9.64a3.948 3.948 0 0 0-.176-1.056 2.397 2.397 0 0 0-.464-.896 2.063 2.063 0 0 0-.784-.624c-.32-.16-.71-.24-1.168-.24-.864 0-1.515.315-1.952.944-.427.63-.64 1.456-.64 2.48v2.304c0 1.099.213 1.947.64 2.544.437.587 1.088.88 1.952.88Zm12.133-1.76h-4.8L119.446 17h-1.44l3.392-11.2h2.528l3.392 11.2h-1.44l-.816-2.784Zm-2.496-7.84-1.936 6.592h4.064l-1.936-6.592h-.192Zm6.389-.576h1.344v9.952h5.856V17h-7.2V5.8Zm9.796 0h1.344v9.952h5.856V17h-7.2V5.8Zm12.629 7.264h-.288L147.588 5.8h1.504l2.864 6.112h.192l2.864-6.112h1.504l-3.504 7.264h-.288V17h-1.344v-3.936Zm22.666 1.152h-4.8L168.43 17h-1.44l3.392-11.2h2.528l3.392 11.2h-1.44l-.816-2.784Zm-2.496-7.84-1.936 6.592h4.064l-1.936-6.592h-.192Zm6.389-.576h1.344v9.952h5.856V17h-7.2V5.8Zm9.749 0h7.104v1.248h-2.88v8.704h2.88V17h-7.104v-1.248h2.88V7.048h-2.88V5.8Zm12.277 5.824h4.992V17h-1.248v-1.344h-.192a2.31 2.31 0 0 1-.96 1.136c-.459.288-.992.432-1.6.432-1.206 0-2.155-.39-2.848-1.168-.683-.779-1.024-1.915-1.024-3.408v-2.496c0-1.45.346-2.576 1.04-3.376.693-.8 1.658-1.2 2.896-1.2.64 0 1.205.107 1.696.32.49.203.901.49 1.232.864.33.363.581.795.752 1.296.17.49.256 1.019.256 1.584v.192h-1.344V9.64c0-.363-.054-.715-.16-1.056a2.397 2.397 0 0 0-.464-.896 2.042 2.042 0 0 0-.8-.624c-.32-.16-.71-.24-1.168-.24-.864 0-1.515.315-1.952.944-.427.63-.64 1.456-.64 2.48v2.304c0 1.099.213 1.947.64 2.544.437.587 1.098.88 1.984.88.8 0 1.424-.256 1.872-.768.458-.512.688-1.227.688-2.144v-.192h-3.648v-1.248Zm13.061 4.8h.192V5.8h1.344V17h-2.688l-3.232-10.624h-.192V17h-1.344V5.8h2.688l3.232 10.624ZM217.238 5.8h6.784v1.248h-5.44v3.712h5.344v1.248h-5.344v3.744h5.536V17h-6.88V5.8Zm9.461 0h3.68c1.387 0 2.4.33 3.04.992.64.661.96 1.717.96 3.168v2.88c0 1.45-.32 2.507-.96 3.168-.64.661-1.653.992-3.04.992h-3.68v-1.264h.96V7.048h-.96V5.8Zm3.488 9.952c.491 0 .912-.048 1.264-.144.363-.096.662-.256.896-.48.235-.235.406-.544.512-.928.118-.384.176-.87.176-1.456v-2.688c0-.587-.058-1.072-.176-1.456-.106-.384-.277-.688-.512-.912a1.935 1.935 0 0 0-.896-.496 4.849 4.849 0 0 0-1.264-.144h-1.184v8.704h1.184Z"/></svg>
